app/dist/common/images/wellnex-life-limited.svg

<svg height="18" viewBox="0 0 18 18" width="18" xmlns="http://www.w3.org/2000/svg"><path d="m0 0h18v18h-18z" fill="#f0f3fa"/><path d="m4.87 6h-.87l3.33 7 1.67-3.94 1.67 3.94 3.33-7h-.87c-.68 0-1.3.35-1.55.88l-1.08 2.18-1.5-3.06-1.67 3.06-.91-2.18c-.25-.53-.87-.88-1.55-.88z" fill="#232963"/></svg>

<!-- by TradingView --><svg width="18" height="18" viewBox="0 0 18 18" xmlns="http://www.w3.org/2000/svg"><path fill="#F0F3FA" d="M0 0h18v18H0z"/><path d="M4.87 6H4l3.33 7L9 9.06 10.67 13 14 6h-.87c-.68 0-1.3.35-1.55.88L10.5 9.06 9 6 7.33 9.06l-.91-2.18C6.17 6.35 5.55 6 4.87 6Z" fill="#232963"/></svg>
